images/change-mode-icon.svg

<svg width="24" height="24" viewBox="0 0 24 24" fill="none" xmlns="http://www.w3.org/2000/svg">
<path id="Vector" opacity="0.5" d="M12 0C13.1016 0 14.1641 0.140625 15.1875 0.421875C16.2109 0.703125 17.168 1.10547 18.0586 1.62891C18.9492 2.15234 19.7578 2.77734 20.4844 3.50391C21.2109 4.23047 21.8359 5.04297 22.3594 5.94141C22.8828 6.83984 23.2852 7.79688 23.5664 8.8125C23.8477 9.82812 23.9922 10.8906 24 12C24 13.1016 23.8594 14.1641 23.5781 15.1875C23.2969 16.2109 22.8945 17.168 22.3711 18.0586C21.8477 18.9492 21.2227 19.7578 20.4961 20.4844C19.7695 21.2109 18.957 21.8359 18.0586 22.3594C17.1602 22.8828 16.2031 23.2852 15.1875 23.5664C14.1719 23.8477 13.1094 23.9922 12 24C10.8984 24 9.83594 23.8594 8.8125 23.5781C7.78906 23.2969 6.83203 22.8945 5.94141 22.3711C5.05078 21.8477 4.24219 21.2227 3.51562 20.4961C2.78906 19.7695 2.16406 18.957 1.64062 18.0586C1.11719 17.1602 0.714844 16.207 0.433594 15.1992C0.152344 14.1914 0.0078125 13.125 0 12C0 10.8984 0.140625 9.83594 0.421875 8.8125C0.703125 7.78906 1.10547 6.83203 1.62891 5.94141C2.15234 5.05078 2.77734 4.24219 3.50391 3.51562C4.23047 2.78906 5.04297 2.16406 5.94141 1.64062C6.83984 1.11719 7.79297 0.714844 8.80078 0.433594C9.80859 0.152344 10.875 0.0078125 12 0ZM12 22.5C12.9609 22.5 13.8867 22.375 14.7773 22.125C15.668 21.875 16.5039 21.5234 17.2852 21.0703C18.0664 20.6172 18.7773 20.0664 19.418 19.418C20.0586 18.7695 20.6055 18.0625 21.0586 17.2969C21.5117 16.5312 21.8672 15.6953 22.125 14.7891C22.3828 13.8828 22.5078 12.9531 22.5 12C22.5 11.0391 22.375 10.1133 22.125 9.22266C21.875 8.33203 21.5234 7.49609 21.0703 6.71484C20.6172 5.93359 20.0664 5.22266 19.418 4.58203C18.7695 3.94141 18.0625 3.39453 17.2969 2.94141C16.5312 2.48828 15.6953 2.13281 14.7891 1.875C13.8828 1.61719 12.9531 1.49219 12 1.5C11.4922 1.5 10.9922 1.53516 10.5 1.60547V22.3945C10.9922 22.4648 11.4922 22.5 12 22.5Z" fill="white"/>
</svg>

<svg xmlns="http://www.w3.org/2000/svg" width="24" height="24" fill="none"><path fill="#fff" d="M12 0c1.102 0 2.164.14 3.188.422a11.82 11.82 0 0 1 2.87 1.207c.891.523 1.7 1.148 2.426 1.875.727.726 1.352 1.539 1.875 2.437a12.084 12.084 0 0 1 1.22 9.246 11.82 11.82 0 0 1-1.208 2.872c-.523.89-1.148 1.699-1.875 2.425a11.916 11.916 0 0 1-2.437 1.875 12.084 12.084 0 0 1-9.247 1.22 11.82 11.82 0 0 1-2.87-1.208 12.05 12.05 0 0 1-2.426-1.875A11.912 11.912 0 0 1 1.64 18.06a12.137 12.137 0 0 1-1.207-2.86 12.168 12.168 0 0 1-.012-6.386A11.82 11.82 0 0 1 1.629 5.94c.523-.89 1.148-1.699 1.875-2.425A11.91 11.91 0 0 1 5.94 1.64 12.137 12.137 0 0 1 8.801.434 12.168 12.168 0 0 1 12 0Zm0 22.5c.96 0 1.887-.125 2.777-.375.891-.25 1.727-.602 2.508-1.055a10.136 10.136 0 0 0 2.133-1.652 10.938 10.938 0 0 0 1.64-2.121c.454-.766.81-1.602 1.067-2.508A9.847 9.847 0 0 0 22.5 12c0-.96-.125-1.887-.375-2.777-.25-.891-.602-1.727-1.055-2.508a10.133 10.133 0 0 0-1.652-2.133 10.938 10.938 0 0 0-2.121-1.64 10.588 10.588 0 0 0-2.508-1.067A9.846 9.846 0 0 0 12 1.5c-.508 0-1.008.035-1.5.105v20.79c.492.07.992.105 1.5.105Z" opacity=".5"/></svg>
